dist/svg/desktop-group.svg

<!-- Generated by Trend Micro Style Portal -->
<svg version="1.1" xmlns="http://www.w3.org/2000/svg" width="16" height="16" viewBox="0 0 16 16">
  <title>desktop-group</title>
  <path fill="rgb(34,34,34)" d="M16 1v8c0 0.552-0.448 1-1 1v0h-1v-8h-11v-1c0-0.552 0.448-1 1-1v0h11c0.552 0 1 0.448 1 1v0zM13 4v8c0 0.552-0.448 1-1 1v0h-4.5v0.79l0.37 0.21 1.88 1.070c0.148 0.089 0.245 0.248 0.245 0.43 0 0.274-0.221 0.497-0.495 0.5h-6c-0.274-0.003-0.495-0.226-0.495-0.5 0-0.182 0.097-0.341 0.243-0.429l0.002-0.001 2.25-1.3v-0.77h-4.5c-0.552 0-1-0.448-1-1v0-8c0-0.552 0.448-1 1-1v0h11c0.552 0 1 0.448 1 1v0zM11 8v-3h-9v6h9v-3z"></path>
</svg>

<svg width="16" height="16" viewBox="0 0 16 16" fill="rgb(34, 34, 34)" xmlns="http://www.w3.org/2000/svg"><title>desktop-group</title><path d="M16 1V9C16 9.552 15.552 10 15 10H14V2H3V1C3 0.448 3.448 0 4 0H15C15.552 0 16 0.448 16 1ZM13 4V12C13 12.552 12.552 13 12 13H7.5V13.79L7.87 14L9.75 15.07C9.898 15.159 9.995 15.318 9.995 15.5C9.995 15.774 9.774 15.997 9.5 16H3.5C3.226 15.997 3.005 15.774 3.005 15.5C3.005 15.318 3.102 15.159 3.248 15.071L3.25 15.07L5.5 13.77V13H1C0.448 13 0 12.552 0 12V4C0 3.448 0.448 3 1 3H12C12.552 3 13 3.448 13 4ZM11 8V5H2V11H11V8Z" fill="rgb(34, 34, 34)" fill-opacity="1.00"/></svg>
